assets/vectors/icons/tarot_icon.svg

<?xml version="1.0" encoding="UTF-8" standalone="no"?>
<svg
   width="96.609596"
   height="114.05471"
   viewBox="0 0 402.53998 475.22796"
   version="1.1"
   id="svg1099"
   sodipodi:docname="Tarot_edited.svg"
   inkscape:version="1.1.2 (0a00cf5339, 2022-02-04, custom)"
   xmlns:inkscape="http://www.inkscape.org/namespaces/inkscape"
   xmlns:sodipodi="http://sodipodi.sourceforge.net/DTD/sodipodi-0.dtd"
   xmlns="http://www.w3.org/2000/svg"
   xmlns:svg="http://www.w3.org/2000/svg">
  <defs
     id="defs1103" />
  <sodipodi:namedview
     id="namedview1101"
     pagecolor="#505050"
     bordercolor="#eeeeee"
     borderopacity="1"
     inkscape:pageshadow="0"
     inkscape:pageopacity="0"
     inkscape:pagecheckerboard="0"
     showgrid="false"
     inkscape:zoom="8.2916667"
     inkscape:cx="52.522613"
     inkscape:cy="49.20603"
     inkscape:window-width="2560"
     inkscape:window-height="1377"
     inkscape:window-x="-8"
     inkscape:window-y="-8"
     inkscape:window-maximized="1"
     inkscape:current-layer="svg1099" />
  <g
     stroke-linecap="round"
     id="Layer_1"
     transform="translate(-180.69,-54.899751)">
    <path
       d="m 200.17,194.05 c 0,0 -2.63,0 -2.63,0 2.85,4.16 22.17,67.03 26.63,81.74 0.69,2.1 14.89,41.76 20.39,57.31 10.7,28.32 31.61,85.05 42.36,113.65 5.18,14.21 10.72,29.4 20.57,53.82 5.27,13.66 6.92,17.31 12.25,24.6 0,0 -0.42,-4.31 -0.42,-4.31"
       fill="none"
       stroke="#000000"
       stroke-width="9"
       stroke-opacity="1"
       stroke-linejoin="round"
       id="path1072" />
    <path
       d="m 322.73,524.26 c 0,0 -2.04,1.37 -2.04,1.37 0.05,0.02 15.34,-3.24 25.36,-6.54 10.8,-3.76 45.4,-17.56 55.14,-21.03 7.83,-2.55 54.41,-21.21 58.1,-22.85 2.12,-0.95 37.69,-18.23 50.89,-24.3 1.47,-0.69 3.69,-1.79 4.55,-2.22 0,0 -0.34,0 -0.34,0"
       fill="none"
       stroke="#000000"
       stroke-width="9"
       stroke-opacity="1"
       stroke-linejoin="round"
       id="path1074" />
    <path
       d="m 200.17,195.41 c 0,0 -1.36,1.36 -1.36,1.36 7.51,-4.46 12.67,-7.96 19.87,-12.34 9.33,-5.48 18.28,-10.19 27.56,-14.59 14.1,-6.21 40.41,-18.35 53.53,-24.48 12.14,-5.23 38.81,-17.1 53.34,-23.74 19.91,-8.83 32.51,-12.99 33.03,-13.19 1.06,-0.37 4.6,2.82 6.24,5.68 2.59,4.65 6.85,16.66 8.81,22.41 11.3,32.72 31.47,91.68 40.34,117.92 10.02,28.78 31.36,88.99 42.67,120.43 4.8,12.32 16.94,43.97 20.34,50.51 4.29,8.49 6.72,14.59 9.92,24.36"
       fill="none"
       stroke="#000000"
       stroke-width="9"
       stroke-opacity="1"
       stroke-linejoin="round"
       id="path1076" />
    <path
       d="m 266.22,155.24 c 0,0 0.68,0.68 0.68,0.68 0,0 -8.8,-20.1 -8.8,-20.1 1.93,-3.18 10.39,-8.34 21.17,-13.81 12.79,-6.29 40.7,-19.03 55.7,-25.91 7.57,-3.35 19.28,-8.46 26.66,-11.01 12.13,-3.87 65.62,-24.78 67.34,-25.08 0.74,-0.13 3.97,-0.41 5.68,-0.59 2.03,-0.14 4.09,0.6 5.39,1.86 1.41,1.45 16.63,38.91 21.77,52.68 4.8,13.5 13.6,38.98 18.27,52.13 5.61,14.81 16.86,44.57 22.48,59.51 9.59,28.09 31.55,93.43 38.24,115.59 3.97,13.79 13.32,45.23 16.77,53.02 -1.84,1.05 -14.75,9.61 -22.31,12.98 -12.75,5.51 -19.32,9.06 -23.7,10.75 -2.42,0.93 -3.24,1.3 -3.59,1.62 0,0 0.64,-0.83 0.64,-0.83"
       fill="none"
       stroke="#000000"
       stroke-width="9"
       stroke-opacity="1"
       stroke-linejoin="round"
       id="path1078" />
    <path
       d="m 192.68,316.6 c -0.2,0.46 -0.36,0.82 -0.5,1.09 -0.36,0.81 1.63,7.94 2.04,10.13 0.34,1.81 1.07,9.69 1,12.02 -0.07,1.77 -1.54,9.26 -1.87,10.34 -1.22,3.81 -7.65,12.08 -8.16,12.72"
       fill="none"
       stroke="#000000"
       stroke-width="9"
       stroke-opacity="1"
       stroke-linejoin="round"
       id="path1080" />
    <path
       d="m 192.68,315.92 c 0,0 -1.31,0.09 -1.31,0.09 1.04,1.57 9.97,20.68 11.5,22.47 1.74,1.98 4.62,4.66 7.25,5.96 1.15,0.55 8.58,3.53 9.78,3.9"
       fill="none"
       stroke="#000000"
       stroke-width="9"
       stroke-opacity="1"
       stroke-linejoin="round"
       id="path1082" />
    <path
       d="m 191.32,357.45 c -0.1,-0.01 -0.4,0.06 -0.3,0.1 5.69,2.83 8.83,4.89 11.35,6.88 4.91,3.92 10.38,12.15 12.1,14.77 -1.14,-3.74 -1.44,-8.8 -0.96,-12.53 1.08,-8.02 2.45,-13.16 3.34,-16.01"
       fill="none"
       stroke="#000000"
       stroke-width="9"
       stroke-opacity="1"
       stroke-linejoin="round"
       id="path1084" />
    <path
       d="m 516.09,87.15 c 0.88,3.26 0.34,16.35 -0.88,22.55 -0.76,3.74 -2.05,8.47 -3.49,12.79 -1.24,3.66 -3.55,7.24 -5.14,8.93 -0.42,0.43 -1.33,1.33 -2.74,2.71"
       fill="none"
       stroke="#000000"
       stroke-width="9"
       stroke-opacity="1"
       stroke-linejoin="round"
       id="path1086" />
    <path
       d="m 518.14,86.47 c 2.42,6.37 7,16.03 11.16,20.81 2.5,2.82 10.06,8.69 12.14,9.72 1.3,0.62 3,0.95 4.27,0.89 0.45,-0.03 1.24,-0.06 2.39,-0.1"
       fill="none"
       stroke="#000000"
       stroke-width="9"
       stroke-opacity="1"
       stroke-linejoin="round"
       id="path1088" />
    <path
       d="m 506.56,134.05 c 0,0 0.16,-1.02 0.16,-1.02 3.19,-0.15 9.95,1.61 11.23,2.03 2.72,0.9 6.94,3.19 9.01,4.54 3.46,2.33 9.22,12.06 9.78,12.51 0.09,-1.11 -0.82,-5.14 -0.49,-7.8 0.36,-2.66 2.06,-8.65 3.2,-11.73 0.98,-2.58 5.71,-12.1 5.65,-12.67"
       fill="none"
       stroke="#000000"
       stroke-width="9"
       stroke-opacity="1"
       stroke-linejoin="round"
       id="path1090" />
    <path
       d="m 558.31,132.77 c 0.23,0.42 0.8,5.9 0.53,9.22 -0.39,4.37 -1.61,10.25 -3.38,13.51 -0.56,1.01 -2.59,4.05 -3.32,5.02 -1.81,2.33 -4.9,3.41 -6.09,3.57"
       fill="none"
       stroke="#000000"
       stroke-width="9"
       stroke-opacity="1"
       stroke-linejoin="round"
       id="path1092" />
    <path
       d="m 560.35,134.81 c -0.2,-0.38 -0.74,-1.54 -0.65,-1.12 0.8,3.3 7.52,13.73 11.38,17.58 1.32,1.29 3.53,3.37 4.25,3.93 1.08,0.83 2.6,1.73 3.4,2.08"
       fill="none"
       stroke="#000000"
       stroke-width="9"
       stroke-opacity="1"
       stroke-linejoin="round"
       id="path1094" />
    <path
       d="m 549.46,165.45 c 2.87,0.92 8.47,4.86 11.79,7.18 8.17,5.83 8.74,6.78 8.68,7.12 -0.54,-3.71 -0.54,-7.59 0.75,-11.39 0.63,-1.82 3.41,-8.92 3.63,-9.44 0.17,-0.41 0.51,-1.19 1.02,-2.32"
       fill="none"
       stroke="#000000"
       stroke-width="9"
       stroke-opacity="1"
       stroke-linejoin="round"
       id="path1096" />
  </g>
</svg>

<?xml version="1.0" encoding="UTF-8" standalone="no"?>
<!DOCTYPE svg PUBLIC "-//W3C//DTD SVG 1.1//EN" "http://www.w3.org/Graphics/SVG/1.1/DTD/svg11.dtd">
<svg width="192.00" height="144.00" viewBox="0.00 0.00 800.00 600.00" xmlns="http://www.w3.org/2000/svg" xmlns:xlink="http://www.w3.org/1999/xlink">
<g stroke-linecap="round" id="Layer_1">
<path d="M200.17,194.05 C200.17,194.05 197.54,194.05 197.54,194.05 C200.39,198.21 219.71,261.08 224.17,275.79 C224.86,277.89 239.06,317.55 244.56,333.10 C255.26,361.42 276.17,418.15 286.92,446.75 C292.10,460.96 297.64,476.15 307.49,500.57 C312.76,514.23 314.41,517.88 319.74,525.17 C319.74,525.17 319.32,520.86 319.32,520.86" fill="none" stroke="rgb(0, 0, 0)" stroke-width="9.00" stroke-opacity="1.00" stroke-linejoin="round"/>
<path d="M322.73,524.26 C322.73,524.26 320.69,525.63 320.69,525.63 C320.74,525.65 336.03,522.39 346.05,519.09 C356.85,515.33 391.45,501.53 401.19,498.06 C409.02,495.51 455.60,476.85 459.29,475.21 C461.41,474.26 496.98,456.98 510.18,450.91 C511.65,450.22 513.87,449.12 514.73,448.69 C514.73,448.69 514.39,448.69 514.39,448.69" fill="none" stroke="rgb(0, 0, 0)" stroke-width="9.00" stroke-opacity="1.00" stroke-linejoin="round"/>
<path d="M200.17,195.41 C200.17,195.41 198.81,196.77 198.81,196.77 C206.32,192.31 211.48,188.81 218.68,184.43 C228.01,178.95 236.96,174.24 246.24,169.84 C260.34,163.63 286.65,151.49 299.77,145.36 C311.91,140.13 338.58,128.26 353.11,121.62 C373.02,112.79 385.62,108.63 386.14,108.43 C387.20,108.06 390.74,111.25 392.38,114.11 C394.97,118.76 399.23,130.77 401.19,136.52 C412.49,169.24 432.66,228.20 441.53,254.44 C451.55,283.22 472.89,343.43 484.20,374.87 C489.00,387.19 501.14,418.84 504.54,425.38 C508.83,433.87 511.26,439.97 514.46,449.74" fill="none" stroke="rgb(0, 0, 0)" stroke-width="9.00" stroke-opacity="1.00" stroke-linejoin="round"/>
<path d="M266.22,155.24 C266.22,155.24 266.90,155.92 266.90,155.92 C266.90,155.92 258.10,135.82 258.10,135.82 C260.03,132.64 268.49,127.48 279.27,122.01 C292.06,115.72 319.97,102.98 334.97,96.10 C342.54,92.75 354.25,87.64 361.63,85.09 C373.76,81.22 427.25,60.31 428.97,60.01 C429.71,59.88 432.94,59.60 434.65,59.42 C436.68,59.28 438.74,60.02 440.04,61.28 C441.45,62.73 456.67,100.19 461.81,113.96 C466.61,127.46 475.41,152.94 480.08,166.09 C485.69,180.90 496.94,210.66 502.56,225.60 C512.15,253.69 534.11,319.03 540.80,341.19 C544.77,354.98 554.12,386.42 557.57,394.21 C555.73,395.26 542.82,403.82 535.26,407.19 C522.51,412.70 515.94,416.25 511.56,417.94 C509.14,418.87 508.32,419.24 507.97,419.56 C507.97,419.56 508.61,418.73 508.61,418.73" fill="none" stroke="rgb(0, 0, 0)" stroke-width="9.00" stroke-opacity="1.00" stroke-linejoin="round"/>
<path d="M192.68,316.60 C192.48,317.06 192.32,317.42 192.18,317.69 C191.82,318.50 193.81,325.63 194.22,327.82 C194.56,329.63 195.29,337.51 195.22,339.84 C195.15,341.61 193.68,349.10 193.35,350.18 C192.13,353.99 185.70,362.26 185.19,362.90" fill="none" stroke="rgb(0, 0, 0)" stroke-width="9.00" stroke-opacity="1.00" stroke-linejoin="round"/>
<path d="M192.68,315.92 C192.68,315.92 191.37,316.01 191.37,316.01 C192.41,317.58 201.34,336.69 202.87,338.48 C204.61,340.46 207.49,343.14 210.12,344.44 C211.27,344.99 218.70,347.97 219.90,348.34" fill="none" stroke="rgb(0, 0, 0)" stroke-width="9.00" stroke-opacity="1.00" stroke-linejoin="round"/>
<path d="M191.32,357.45 C191.22,357.44 190.92,357.51 191.02,357.55 C196.71,360.38 199.85,362.44 202.37,364.43 C207.28,368.35 212.75,376.58 214.47,379.20 C213.33,375.46 213.03,370.40 213.51,366.67 C214.59,358.65 215.96,353.51 216.85,350.66" fill="none" stroke="rgb(0, 0, 0)" stroke-width="9.00" stroke-opacity="1.00" stroke-linejoin="round"/>
<path d="M516.09,87.15 C516.97,90.41 516.43,103.50 515.21,109.70 C514.45,113.44 513.16,118.17 511.72,122.49 C510.48,126.15 508.17,129.73 506.58,131.42 C506.16,131.85 505.25,132.75 503.84,134.13" fill="none" stroke="rgb(0, 0, 0)" stroke-width="9.00" stroke-opacity="1.00" stroke-linejoin="round"/>
<path d="M518.14,86.47 C520.56,92.84 525.14,102.50 529.30,107.28 C531.80,110.10 539.36,115.97 541.44,117.00 C542.74,117.62 544.44,117.95 545.71,117.89 C546.16,117.86 546.95,117.83 548.10,117.79" fill="none" stroke="rgb(0, 0, 0)" stroke-width="9.00" stroke-opacity="1.00" stroke-linejoin="round"/>
<path d="M506.56,134.05 C506.56,134.05 506.72,133.03 506.72,133.03 C509.91,132.88 516.67,134.64 517.95,135.06 C520.67,135.96 524.89,138.25 526.96,139.60 C530.42,141.93 536.18,151.66 536.74,152.11 C536.83,151.00 535.92,146.97 536.25,144.31 C536.61,141.65 538.31,135.66 539.45,132.58 C540.43,130.00 545.16,120.48 545.10,119.91" fill="none" stroke="rgb(0, 0, 0)" stroke-width="9.00" stroke-opacity="1.00" stroke-linejoin="round"/>
<path d="M558.31,132.77 C558.54,133.19 559.11,138.67 558.84,141.99 C558.45,146.36 557.23,152.24 555.46,155.50 C554.90,156.51 552.87,159.55 552.14,160.52 C550.33,162.85 547.24,163.93 546.05,164.09" fill="none" stroke="rgb(0, 0, 0)" stroke-width="9.00" stroke-opacity="1.00" stroke-linejoin="round"/>
<path d="M560.35,134.81 C560.15,134.43 559.61,133.27 559.70,133.69 C560.50,136.99 567.22,147.42 571.08,151.27 C572.40,152.56 574.61,154.64 575.33,155.20 C576.41,156.03 577.93,156.93 578.73,157.28" fill="none" stroke="rgb(0, 0, 0)" stroke-width="9.00" stroke-opacity="1.00" stroke-linejoin="round"/>
<path d="M549.46,165.45 C552.33,166.37 557.93,170.31 561.25,172.63 C569.42,178.46 569.99,179.41 569.93,179.75 C569.39,176.04 569.39,172.16 570.68,168.36 C571.31,166.54 574.09,159.44 574.31,158.92 C574.48,158.51 574.82,157.73 575.33,156.60" fill="none" stroke="rgb(0, 0, 0)" stroke-width="9.00" stroke-opacity="1.00" stroke-linejoin="round"/>
</g>
</svg>
